static/img/svg/grid.svg

<svg xmlns="http://www.w3.org/2000/svg" width="24" height="24" viewBox="0 0 24 24"><path d="M10 10h4v4h-4zM16 10h4v4h-4zM16 4h4v4h-4zM10 4h4v4h-4zM4 4h4v4H4zM4 10h4v4H4zM10 16h4v4h-4zM16 16h4v4h-4zM4 16h4v4H4z"/></svg>

<svg xmlns="http://www.w3.org/2000/svg" width="24" height="24" viewBox="0 0 24 24"><path d="M10 10H14V14H10zM16 10H20V14H16zM16 4H20V8H16zM10 4H14V8H10zM4 4H8V8H4zM4 10H8V14H4zM10 16H14V20H10zM16 16H20V20H16zM4 16H8V20H4z"/></svg>
